lib/assets/images/heart.svg

<svg width="100" height="100" viewBox="0 0 100 100" fill="none" xmlns="http://www.w3.org/2000/svg">
<path fill-rule="evenodd" clip-rule="evenodd" d="M49.9999 24.4809L46.7468 22.0374C43.3002 19.4486 39.0243 17.9167 34.3749 17.9167C22.984 17.9167 13.7499 27.1508 13.7499 38.5417C13.7499 48.5784 20.0992 57.6421 28.5241 65.1409C36.6442 72.3684 45.8103 77.3424 49.9999 79.4219C54.1895 77.3424 63.3556 72.3684 71.4758 65.1409C79.9007 57.6421 86.2499 48.5784 86.2499 38.5417C86.2499 27.1508 77.0158 17.9167 65.6249 17.9167C60.9756 17.9167 56.6996 19.4486 53.253 22.0374L49.9999 24.4809ZM49.9999 17.7064C45.6475 14.4372 40.2374 12.5 34.3749 12.5C19.9925 12.5 8.33325 24.1593 8.33325 38.5417C8.33325 63.273 39.3903 80.24 47.8783 84.4154C49.2339 85.0822 50.7659 85.0822 52.1215 84.4154C60.6096 80.24 91.6666 63.273 91.6666 38.5417C91.6666 24.1593 80.0073 12.5 65.6249 12.5C59.7624 12.5 54.3523 14.4372 49.9999 17.7064Z" fill="#3A83F1"/>
</svg>

<svg width="100" height="100" fill="none" xmlns="http://www.w3.org/2000/svg"><path fill-rule="evenodd" clip-rule="evenodd" d="M50 24.48l-3.253-2.443a20.51 20.51 0 0 0-12.372-4.12c-11.391 0-20.625 9.234-20.625 20.625 0 10.036 6.35 19.1 14.774 26.599C36.644 72.368 45.81 77.342 50 79.42c4.19-2.079 13.356-7.053 21.476-14.28C79.9 57.642 86.25 48.578 86.25 38.54c0-11.39-9.234-20.624-20.625-20.624a20.51 20.51 0 0 0-12.372 4.12L50 24.481zm0-6.774A25.927 25.927 0 0 0 34.375 12.5c-14.383 0-26.042 11.66-26.042 26.042 0 24.731 31.057 41.698 39.545 45.873a4.75 4.75 0 0 0 4.243 0c8.489-4.175 39.546-21.142 39.546-45.873 0-14.383-11.66-26.042-26.042-26.042A25.927 25.927 0 0 0 50 17.706z" fill="#3A83F1"/></svg>
